X:137
T: Schnstes Mdchen auf dieser Erde (2-23), S. 58
N: K1111
O: Luxemburg
S: KINTZELE, Guillaume: An der Ucht, Bd. 2, Luxemburg 1927]
N: in der Quelle mit einer 2. Stimme versehen
R: Bitte um Treue]
M: 4/4
L: 1/16
K: F
F2F2 | F4C6A2A2A2 | A2F2F6z2
A2B2 | c6A2B4A4 | G8z4
c2B2 | A3AA6c2d3c | c2B2G6z2
A2B2 | c4F2G2A4G4 | F8z4
c2B2 | A3AA6c2d3c | c2B2G6z2
A2B2 | c4F2G2A4G4 | F8z4

